src/img/namber-3.svg

<svg width="260" height="176" viewBox="0 0 260 176" fill="none" xmlns="http://www.w3.org/2000/svg">
<path opacity="0.1" d="M67.6 175.36C46.64 175.36 30.16 167.44 18.16 151.6C6.32 135.6 0.4 114.4 0.4 88C0.4 61.6 6.32 40.48 18.16 24.64C30.16 8.63999 46.64 0.639989 67.6 0.639989C88.72 0.639989 105.2 8.63999 117.04 24.64C128.88 40.48 134.8 61.6 134.8 88C134.8 114.4 128.88 135.6 117.04 151.6C105.2 167.44 88.72 175.36 67.6 175.36ZM42.16 129.04C47.92 138.32 56.4 142.96 67.6 142.96C78.8 142.96 87.28 138.24 93.04 128.8C98.96 119.36 101.92 105.76 101.92 88C101.92 70.08 98.96 56.4 93.04 46.96C87.28 37.52 78.8 32.8 67.6 32.8C56.4 32.8 47.92 37.52 42.16 46.96C36.4 56.4 33.52 70.08 33.52 88C33.52 105.92 36.4 119.6 42.16 129.04ZM221.095 72.16C232.455 75.52 241.655 81.44 248.695 89.92C255.895 98.24 259.495 108.32 259.495 120.16C259.495 137.44 253.655 150.96 241.975 160.72C230.455 170.48 216.295 175.36 199.495 175.36C186.375 175.36 174.615 172.4 164.215 166.48C153.975 160.4 146.535 151.52 141.895 139.84L170.215 123.52C174.375 136.48 184.135 142.96 199.495 142.96C207.975 142.96 214.535 140.96 219.175 136.96C223.975 132.8 226.375 127.2 226.375 120.16C226.375 113.28 223.975 107.76 219.175 103.6C214.535 99.44 207.975 97.36 199.495 97.36H192.295L179.575 78.16L212.695 34.96H146.935V3.99999H252.535V31.36L221.095 72.16Z" fill="white"/>
</svg>

<svg width="260" height="176" fill="none" xmlns="http://www.w3.org/2000/svg"><path opacity=".1" d="M67.6 175.36c-20.96 0-37.44-7.92-49.44-23.76C6.32 135.6.4 114.4.4 88s5.92-47.52 17.76-63.36c12-16 28.48-24 49.44-24 21.12 0 37.6 8 49.44 24C128.88 40.48 134.8 61.6 134.8 88s-5.92 47.6-17.76 63.6c-11.84 15.84-28.32 23.76-49.44 23.76zm-25.44-46.32c5.76 9.28 14.24 13.92 25.44 13.92 11.2 0 19.68-4.72 25.44-14.16 5.92-9.44 8.88-23.04 8.88-40.8 0-17.92-2.96-31.6-8.88-41.04C87.28 37.52 78.8 32.8 67.6 32.8c-11.2 0-19.68 4.72-25.44 14.16C36.4 56.4 33.52 70.08 33.52 88c0 17.92 2.88 31.6 8.64 41.04zm178.935-56.88c11.36 3.36 20.56 9.28 27.6 17.76 7.2 8.32 10.8 18.4 10.8 30.24 0 17.28-5.84 30.8-17.52 40.56-11.52 9.76-25.68 14.64-42.48 14.64-13.12 0-24.88-2.96-35.28-8.88-10.24-6.08-17.68-14.96-22.32-26.64l28.32-16.32c4.16 12.96 13.92 19.44 29.28 19.44 8.48 0 15.04-2 19.68-6 4.8-4.16 7.2-9.76 7.2-16.8 0-6.88-2.4-12.4-7.2-16.56-4.64-4.16-11.2-6.24-19.68-6.24h-7.2l-12.72-19.2 33.12-43.2h-65.76V4h105.6v27.36l-31.44 40.8z" fill="#fff"/></svg>
